X: 1873
T: Armstrong's
R: jig
M: 6/8
K: Bminor
f>ef ~B3|g>fe d>BG|e>ce ~A3|f>ed B>cd|
f>ef ~B3|g>fe d>BG|c<ec A>ce|d>BA ~B3:|
G>BG d>BG|A>cA e>cA|F>AF c>AF|~G3 ~A3|
G>BG d>BG|A>cA e>cA|g>fe d>BG|c>BA ~B3:|

